usr/share/icons/biglinux-icons-material/32/actions/color-picker.svg

<svg viewBox="0 0 32 32" xmlns="http://www.w3.org/2000/svg">
    <style type="text/css" id="current-color-scheme">
        .ColorScheme-Text {
            color:#363636;
        }
    </style>
    <path d="m26 4c-.530402.0000803-1.039052.2108465-1.414062.5859375l-2.792969 2.7929687-1.585938-1.5859374-1.414062 1.4140624 1.148437 1.1484376-13.175781 13.1738282c-.5097509.509751-.7656252 1.181695-.765625 1.853515v1.203126l-2 2 1.4140625 1.414062 2-2h1.2050781c.6718211 0 1.3437654-.253921 1.8535154-.763672l13.175782-13.173828 1.144531 1.144531 1.414062-1.414062-1.585937-1.585938 2.792968-2.7929685c.375099-.3750117.585858-.8836601.585938-1.4140625v-.5a1.5 1.5 0 0 0 -1.5-1.5zm-5.351562 5.0625 2.292968 2.292969-8.646484 8.644531h-4.5859376z" class="ColorScheme-Text" fill="currentColor"/>
</svg>

<svg xmlns="http://www.w3.org/2000/svg" viewBox="0 0 32 32"><path fill="currentColor" d="M26 4a2 2 0 0 0-1.414.586l-2.793 2.793-1.586-1.586-1.414 1.414 1.148 1.148L6.766 21.53A2.614 2.614 0 0 0 6 23.383v1.203l-2 2L5.414 28l2-2H8.62c.672 0 1.344-.254 1.854-.764l13.175-13.173 1.145 1.144 1.414-1.414-1.586-1.586 2.793-2.793A2 2 0 0 0 28 6v-.5A1.5 1.5 0 0 0 26.5 4zm-5.352 5.063 2.293 2.292L14.295 20H9.709z" style="color:#dedede"/></svg>
